X:18
T:The Hurricane
C:J. Scott Skinner
R: reel
M:2/4
L:1/16
Z: Jason R. Fruit <jason@starlight-glimmer>
K:A
!f!d | cABG {G}A2(ED) | CEAc B(B,B,)d | cABG A(aga) | x3ax3 & faed cAA :| a | .g.aea cAAa | gaea fBBa |
gaea ABcd | ecdB cAAa | gaea cAAa | gaAa fBBd | cABG !f!A"_D.C. and repeat 1st strain."agf | ecdB cAA ||
"^VAR. I.""_alternately with part I."e | ac'e'c' aecA | GAEA G(BB)g | ac'e'c' aecA | defg aAAe | !1!a!3!c'!0!e'c' .a.e.c.A |
GAEA .G(BB).d | (3(cBA (3BAG A).a.g.f & (c/B/A) (B/A/G) x4 | ecdB cA!D.C.!A || "^VAR. II."c | fgaf ^efcf | efge deBe | 
fgaf !4!^efcf | gabg a(ff)c | fgag ^efcf | efge deBe | aefd ceAa | ecdB cAA |]

